!!!OTL: 2127. Des Sultans Toechterlein.
!!!ARE: Europa, Mitteleuropa, Deutschland, Wertheim
!!!SCT: E2127
!!!TXL: @@DE
!!!YEM: Copyright 1995, estate of Helmut Schaffrath.
**kern	**text
*ICvox	*
*M3/2	*
*k[f#]	*
*G:	*
!LO:TX:a:t=Altes geſchriebenes Notenblatt ʒwiſchen 1620-1660 aus Wertheim.	!
{4d	Der
=1	=1
4g	Sul-
4a	-tan
2b	hatt
2dd	ein
=2	=2
4b/	Töch-
4a	-ter-
2.g}	-lein,
{4cc	die
=3	=3
4b/	war
4a	früh
2b	auf-
2dd	-ge-
=4	=4
2ee	-ſtan-
2dd	-den
4r}	.
{4dd	wol
=5	=5
4b	um
4dd	ʒu
2cc	pflük-
2b	-ken
=6	=6
4a	Blü-
4g	-me-
2f#	-lein
4r}	.
{4g	in
=7	=7
4e	ih-
4d	-res
(4.b/	Va-
8a	.
4g)	.
4a	-ters
=8	=8
2d	Gar-
2g	-ten.
4r}	.
==	==
!!!AGN: geistlich, Heiligen - Lied, Legende
!!!ONB: ESAC (Essen Associative Code) Database: ERK3
!!!AMT: simple triple
!!!AIN: vox
!!!EED: Helmut Schaffrath
!!!EEV: 1.0
!!!GTL: 4. Katholische Lieder: c) Heiligenlieder (Rufe und Legenden.)
!!!URL-scan: https://rosdok.uni-rostock.de/mcrviewer/recordIdentifier/rosdok_ppn745177999/iview2/phys_0824.iview2?x=188.96815741117916&y=1035.5242711859755&scale=0.7014306698522887&rotation=0&layout=singlePageLayout
!!!ENC: Anna Maria Matuszewska
!!!EEV: 2025/14/01
*-	*-
